web/abstruse/src/assets/images/avatars/avatar_13.svg

<svg width="232px" height="280px" viewBox="0 0 232 280" version="1.1" xmlns="http://www.w3.org/2000/svg" xmlns:xlink="http://www.w3.org/1999/xlink">
    <!-- Generator: Sketch 50.2 (55047) - http://www.bohemiancoding.com/sketch -->
    <desc>Created with Sketch.</desc>
    <defs>
        <path d="M124,144.610951 L124,163 L128,163 C167.764502,163 200,195.235498 200,235 L200,244 L0,244 L0,235 C-4.86974701e-15,195.235498 32.235498,163 72,163 L76,163 L76,144.610951 C58.7626345,136.422372 46.3722246,119.687011 44.3051388,99.8812385 C38.4803105,99.0577866 34,94.0521096 34,88 L34,74 C34,68.0540074 38.3245733,63.1180731 44,62.1659169 L44,56 C44,25.072054 69.072054,5.68137151e-15 100,0 C130.927946,-5.68137151e-15 156,25.072054 156,56 L156,62.1659169 C161.675427,63.1180731 166,68.0540074 166,74 L166,88 C166,94.0521096 161.51969,99.0577866 155.694861,99.8812385 C153.627775,119.687011 141.237365,136.422372 124,144.610951 Z" id="path-1"></path>
        <path d="M165.624032,29.2681342 C202.760022,32.1373245 232,63.1798426 232,101.051724 L232,110 L32,110 L32,101.051724 C32,62.8348009 61.7752018,31.5722494 99.3929298,29.1967444 C99.1342224,30.2735458 99,31.3767131 99,32.5 C99,44.3741221 113.998461,54 132.5,54 C151.001539,54 166,44.3741221 166,32.5 C166,31.4015235 165.871641,30.3222877 165.624025,29.2681336 Z" id="path-3"></path>
        <path d="M29,15.6086957 C30.410031,25.2313711 41.062182,33 54,33 C66.9681454,33 77.6461342,25.183301 79,14.7391304 C79.1012093,14.3397326 78.775269,13 76.826087,13 C56.838426,13 41.7395748,13 31.173913,13 C29.3833142,13 28.870211,14.2404669 29,15.6086957 Z" id="path-5"></path>
        <rect id="path-7" x="0" y="0" width="264" height="280"></rect>
        <path d="M180.665797,104.495381 C177.967097,103.690532 174.995621,101.441388 172.019685,98.1692362 C172.013125,98.1681244 172.006563,98.167018 172,98.1659169 L172,98.1475774 C165.154277,90.6101259 158.288087,77.6642508 154.66752,64.4380466 C143.683308,66.1120054 130.513023,67.0867832 116.353789,67.0867832 C101.905207,67.0867832 88.4864044,66.0717584 77.3694073,64.3345491 C73.7548744,77.602262 66.866448,90.6014009 60,98.1571139 L60,98.1659169 C59.9968506,98.1664452 59.9937016,98.1669748 59.9905531,98.1675057 C57.0103265,101.444735 54.034525,103.696079 51.3326281,104.498428 C50.4809755,106.146415 50,108.017039 50,110 L50,123 C50,129.018625 54.4308707,134.002364 60.2085808,134.867187 C61.9518066,155.114792 74.4692178,172.282984 92,180.610951 L92,190.054182 C88.1679073,191.949549 83.9412925,193 79.5,193 C71.878523,193 64.8892346,189.906604 59.4409714,184.758484 C57.9795252,184.918263 56.4981261,185 55,185 C36.6099075,185 20.7403278,172.683502 13.3784857,154.88375 C7.0998554,149.813883 3,141.454126 3,132 C3,130.214987 3.14615333,128.468986 3.42552978,126.776775 C1.21407678,120.339137 0,113.331199 0,106 C0,93.1344627 3.73896962,81.2644681 10.0457422,71.7251464 C10.0153947,71.1545437 10,70.5793265 10,70 C10,59.0433596 15.5065631,49.5565783 23.5293968,44.9571334 C30.8398341,27.369138 46.2592779,14.9905991 64.3030458,14.0567347 C68.7262617,9.07458291 74.7989589,6 81.5,6 C82.4508793,6 83.3891064,6.0619088 84.3117637,6.18239195 C94.0902965,2.19640473 104.788649,0 116,0 C127.211351,0 137.909703,2.19640473 147.688236,6.18239195 C148.610894,6.0619088 149.549121,6 150.5,6 C157.201041,6 163.273738,9.07458291 167.696954,14.0567347 C185.740722,14.9905991 201.160166,27.369138 208.470603,44.9571334 C216.493437,49.5565783 222,59.0433596 222,70 C222,70.5793265 221.984605,71.1545437 221.954258,71.7251464 C228.26103,81.2644681 232,93.1344627 232,106 C232,113.331199 230.785923,120.339137 228.57447,126.776775 C228.853847,128.468986 229,130.214987 229,132 C229,141.454126 224.900145,149.813883 218.621514,154.88375 C211.259672,172.683502 195.390093,185 177,185 C175.501874,185 174.020475,184.918263 172.55904,184.758485 C167.110765,189.906604 160.121477,193 152.5,193 C148.058707,193 143.832093,191.949549 140,190.054182 L140,180.610951 C157.530782,172.282984 170.048193,155.114792 171.791419,134.867187 C177.569129,134.002364 182,129.018625 182,123 L182,110 C182,108.015816 181.518431,106.144109 180.665797,104.495381 Z" id="path-9"></path>
    </defs>
    <g id="Introduction" stroke="none" stroke-width="1" fill="none" fill-rule="evenodd">
        <g id="Intro" transform="translate(-503.000000, -782.000000)">
            <g id="front" transform="translate(295.000000, 782.000000)">
                <g id="Avataaar/Default" transform="translate(192.000000, 0.000000)">
                    <g id="Body" stroke-width="1" fill-rule="evenodd" transform="translate(32.000000, 36.000000)">
                        <mask id="mask-2" fill="white">
                            <use xlink:href="#path-1"></use>
                        </mask>
                        <use fill="#D0C6AC" xlink:href="#path-1"></use>
                        <g id="Skin/👶🏿-01-Black" mask="url(#mask-2)" fill="#614335">
                            <g transform="translate(-32.000000, 0.000000)" id="Color">
                                <rect x="0" y="0" width="264" height="244"></rect>
                            </g>
                        </g>
                        <path d="M156,94 L156,102 C156,132.927946 130.927946,158 100,158 C69.072054,158 44,132.927946 44,102 L44,94 C44,124.927946 69.072054,150 100,150 C130.927946,150 156,124.927946 156,94 Z" id="Neck-Shadow" fill-opacity="0.100000001" fill="#000000" mask="url(#mask-2)"></path>
                    </g>
                    <g id="Clothing/Graphic-Shirt" transform="translate(0.000000, 170.000000)">
                        <mask id="mask-4" fill="white">
                            <use xlink:href="#path-3"></use>
                        </mask>
                        <use id="Clothes" fill="#E6E6E6" fill-rule="evenodd" xlink:href="#path-3"></use>
                        <g id="Color/Palette/Blue-01" mask="url(#mask-4)" fill="#65C9FF" fill-rule="evenodd">
                            <rect id="🖍Color" x="0" y="0" width="264" height="110"></rect>
                        </g>
                        <g id="Clothing/Graphic/-Your-Text" mask="url(#mask-4)" font-family="Avenir-Heavy, Avenir" font-size="28" font-weight="600" letter-spacing="-0.459016293">
                            <g transform="translate(77.000000, 58.000000)" id="Hola!">
                                <text>
                                    <tspan x="22.4315407" y="31" fill="#FFFFFF">Hola!</tspan>
                                </text>
                            </g>
                        </g>
                    </g>
                    <g id="Face" stroke-width="1" fill-rule="evenodd" transform="translate(76.000000, 82.000000)">
                        <g id="Mouth/Tongue" transform="translate(2.000000, 52.000000)">
                            <mask id="mask-6" fill="white">
                                <use xlink:href="#path-5"></use>
                            </mask>
                            <use id="Mouth" fill-opacity="0.699999988" fill="#000000" fill-rule="evenodd" xlink:href="#path-5"></use>
                            <rect id="Teeth" fill="#FFFFFF" fill-rule="evenodd" mask="url(#mask-6)" x="39" y="2" width="31" height="16" rx="5"></rect>
                            <path d="M65.9841079,23.7466656 C65.9945954,23.8296335 66,23.9141856 66,24 L66,33 C66,39.0751322 61.0751322,44 55,44 L54,44 C47.9248678,44 43,39.0751322 43,33 L43,24 C43,23.9141856 43.0054046,23.8296335 43.0158921,23.7466656 C43.0053561,23.6651805 43,23.5829271 43,23.5 C43,21.5670034 45.9101491,20 49.5,20 C51.510438,20 53.3076958,20.4914717 54.5,21.2634601 C55.6923042,20.4914717 57.489562,20 59.5,20 C63.0898509,20 66,21.5670034 66,23.5 C66,23.5829271 65.9946439,23.6651805 65.9841079,23.7466656 Z" id="Tongue" fill="#FF4F6D" fill-rule="evenodd"></path>
                        </g>
                        <g id="Nose/Default" transform="translate(28.000000, 40.000000)" fill="#000000" fill-opacity="0.16">
                            <path d="M16,8 C16,12.418278 21.372583,16 28,16 C34.627417,16 40,12.418278 40,8" id="Nose"></path>
                        </g>
                        <g id="Eyes/Default-😀" transform="translate(0.000000, 8.000000)" fill="#000000" fill-opacity="0.599999964">
                            <circle id="Eye" cx="30" cy="22" r="6"></circle>
                            <circle id="Eye" cx="82" cy="22" r="6"></circle>
                        </g>
                        <g id="Eyebrow/Outline/Default" fill="#000000" fill-opacity="0.599999964">
                            <g id="I-Browse" transform="translate(12.000000, 6.000000)">
                                <path d="M3.63024536,11.1585767 C7.54515501,5.64986673 18.2779197,2.56083721 27.5230268,4.83118046 C28.5957248,5.0946055 29.6788665,4.43856013 29.9422916,3.36586212 C30.2057166,2.2931641 29.5496712,1.21002236 28.4769732,0.94659732 C17.7403633,-1.69001789 5.31209962,1.88699832 0.369754639,8.84142326 C-0.270109626,9.74178291 -0.0589363917,10.9903811 0.84142326,11.6302454 C1.74178291,12.2701096 2.9903811,12.0589364 3.63024536,11.1585767 Z" id="Eyebrow" fill-rule="nonzero"></path>
                                <path d="M61.6302454,11.1585767 C65.545155,5.64986673 76.2779197,2.56083721 85.5230268,4.83118046 C86.5957248,5.0946055 87.6788665,4.43856013 87.9422916,3.36586212 C88.2057166,2.2931641 87.5496712,1.21002236 86.4769732,0.94659732 C75.7403633,-1.69001789 63.3120996,1.88699832 58.3697546,8.84142326 C57.7298904,9.74178291 57.9410636,10.9903811 58.8414233,11.6302454 C59.7417829,12.2701096 60.9903811,12.0589364 61.6302454,11.1585767 Z" id="Eyebrow" fill-rule="nonzero" transform="translate(73.000154, 6.039198) scale(-1, 1) translate(-73.000154, -6.039198) "></path>
                            </g>
                        </g>
                    </g>
                    <g id="Top" stroke-width="1" fill-rule="evenodd">
                        <mask id="mask-8" fill="white">
                            <use xlink:href="#path-7"></use>
                        </mask>
                        <g id="Mask"></g>
                        <g id="Top/Long-Hair/Fro" mask="url(#mask-8)">
                            <g transform="translate(-1.000000, 0.000000)">
                                <path d="M67,109.777572 L67,89 C67,66.1127033 78.6498638,45.9463781 96.3431783,34.1074375 C96.8778294,36.6175705 97.2315704,39.3922173 97.3896335,42.392798 C107.88169,40.9292706 120.190372,40.0867832 133.353789,40.0867832 C146.228147,40.0867832 158.284896,40.892676 168.624132,42.2972893 C168.784517,39.3353373 169.136033,36.5946509 169.664405,34.1125124 C187.353465,45.9521405 199,66.1159733 199,89 L199,109.77655 C189.978479,108.706688 177.129582,89.3913728 171.66752,69.4380466 C160.683308,71.1120054 147.513023,72.0867832 133.353789,72.0867832 C118.905207,72.0867832 105.486404,71.0717584 94.3694073,69.3345491 C88.9217814,89.3309188 76.0375502,108.717226 67,109.777572 Z" id="Shadow" fill-opacity="0.16" fill="#000000" fill-rule="evenodd"></path>
                                <g id="Hair" stroke-width="1" fill="none" fill-rule="evenodd" transform="translate(17.000000, 0.000000)">
                                    <mask id="mask-10" fill="white">
                                        <use xlink:href="#path-9"></use>
                                    </mask>
                                    <use fill="#314756" xlink:href="#path-9"></use>
                                    <g id="Color/Hair/Black" mask="url(#mask-10)" fill="#2C1B18">
                                        <g transform="translate(-16.000000, 0.000000)" id="Color">
                                            <rect x="0" y="0" width="264" height="280"></rect>
                                        </g>
                                    </g>
                                </g>
                                <g id="Facial-Hair/-Blank" fill="none" transform="translate(49.000000, 72.000000)"></g>
                                <g id="Top/_Resources/Blank" fill="none" transform="translate(62.000000, 85.000000)"></g>
                            </g>
                        </g>
                    </g>
                </g>
            </g>
        </g>
    </g>
</svg>

<svg width="232" height="280" xmlns="http://www.w3.org/2000/svg" xmlns:xlink="http://www.w3.org/1999/xlink"><defs><path d="M124 144.611V163h4c39.765 0 72 32.235 72 72v9H0v-9c0-39.765 32.235-72 72-72h4v-18.389c-17.237-8.189-29.628-24.924-31.695-44.73C38.48 99.058 34 94.052 34 88V74c0-5.946 4.325-10.882 10-11.834V56c0-30.928 25.072-56 56-56s56 25.072 56 56v6.166c5.675.952 10 5.888 10 11.834v14c0 6.052-4.48 11.058-10.305 11.881-2.067 19.806-14.458 36.541-31.695 44.73z" id="a"/><path d="M165.624 29.268C202.76 32.138 232 63.18 232 101.052V110H32v-8.948c0-38.217 29.775-69.48 67.393-71.855A14.107 14.107 0 0099 32.5C99 44.374 113.998 54 132.5 54c18.502 0 33.5-9.626 33.5-21.5 0-1.098-.128-2.178-.376-3.232z" id="c"/><path d="M29 15.609C30.41 25.23 41.062 33 54 33c12.968 0 23.646-7.817 25-18.26.101-.4-.225-1.74-2.174-1.74H31.174c-1.79 0-2.304 1.24-2.174 2.609z" id="e"/><path id="g" d="M0 0h264v280H0z"/><path d="M180.666 104.495c-2.699-.804-5.67-3.054-8.646-6.326a12.022 12.022 0 00-.02-.003v-.018c-6.846-7.538-13.712-20.484-17.332-33.71-10.985 1.674-24.155 2.649-38.314 2.649-14.449 0-27.868-1.015-38.985-2.752C73.755 77.602 66.866 90.6 60 98.157v.009l-.01.002c-2.98 3.277-5.955 5.528-8.657 6.33A11.949 11.949 0 0050 110v13c0 6.019 4.43 11.002 10.209 11.867 1.743 20.248 14.26 37.416 31.791 45.744v9.443C88.168 191.95 83.941 193 79.5 193c-7.621 0-14.61-3.093-20.059-8.242-1.461.16-2.943.242-4.441.242-18.39 0-34.26-12.316-41.622-30.116C7.1 149.814 3 141.454 3 132c0-1.785.146-3.531.426-5.223C1.214 120.339 0 113.33 0 106c0-12.866 3.739-24.736 10.046-34.275C10.016 71.155 10 70.58 10 70c0-10.957 5.507-20.443 13.53-25.043 7.31-17.588 22.73-29.966 40.773-30.9C68.726 9.075 74.799 6 81.5 6c.95 0 1.89.062 2.812.182C94.09 2.196 104.789 0 116 0c11.211 0 21.91 2.196 31.688 6.182.923-.12 1.861-.182 2.812-.182 6.701 0 12.774 3.075 17.197 8.057 18.044.934 33.463 13.312 40.774 30.9C216.493 49.557 222 59.043 222 70c0 .58-.015 1.155-.046 1.725C228.261 81.265 232 93.135 232 106c0 7.331-1.214 14.34-3.426 20.777A32.06 32.06 0 01229 132c0 9.454-4.1 17.814-10.378 22.884C211.26 172.684 195.39 185 177 185c-1.498 0-2.98-.082-4.441-.242-5.448 5.149-12.438 8.242-20.059 8.242-4.441 0-8.668-1.05-12.5-2.946v-9.443c17.53-8.328 30.048-25.496 31.791-45.744C177.57 134.002 182 129.02 182 123v-13c0-1.984-.482-3.856-1.334-5.505z" id="i"/></defs><g fill="none" fill-rule="evenodd"><g transform="translate(16 36)"><mask id="b" fill="#fff"><use xlink:href="#a"/></mask><use fill="#D0C6AC" xlink:href="#a"/><g mask="url(#b)" fill="#614335"><path d="M-32 0h264v244H-32z"/></g><path d="M156 94v8c0 30.928-25.072 56-56 56s-56-25.072-56-56v-8c0 30.928 25.072 56 56 56s56-25.072 56-56z" fill-opacity=".1" fill="#000" mask="url(#b)"/></g><g transform="translate(-16 170)"><mask id="d" fill="#fff"><use xlink:href="#c"/></mask><use fill="#E6E6E6" xlink:href="#c"/><g mask="url(#d)" fill="#65C9FF"><path d="M0 0h264v110H0z"/></g><g mask="url(#d)" font-family="Avenir-Heavy, Avenir" font-size="28" font-weight="600" letter-spacing="-.459"><text transform="translate(77 58)"><tspan x="22.432" y="31" fill="#FFF">Hola!</tspan></text></g></g><g transform="translate(62 134)"><mask id="f" fill="#fff"><use xlink:href="#e"/></mask><use fill-opacity=".7" fill="#000" xlink:href="#e"/><rect fill="#FFF" mask="url(#f)" x="39" y="2" width="31" height="16" rx="5"/><path d="M65.984 23.747c.01.083.016.167.016.253v9c0 6.075-4.925 11-11 11h-1c-6.075 0-11-4.925-11-11v-9c0-.086.005-.17.016-.253A1.922 1.922 0 0143 23.5c0-1.933 2.91-3.5 6.5-3.5 2.01 0 3.808.491 5 1.263 1.192-.772 2.99-1.263 5-1.263 3.59 0 6.5 1.567 6.5 3.5 0 .083-.005.165-.016.247z" fill="#FF4F6D"/></g><path d="M104 130c0 4.418 5.373 8 12 8s12-3.582 12-8" fill="#000" fill-opacity=".16"/><g transform="translate(60 90)" fill="#000" fill-opacity=".6"><circle cx="30" cy="22" r="6"/><circle cx="82" cy="22" r="6"/></g><g fill-rule="nonzero" fill="#000" fill-opacity=".6"><path d="M75.63 99.159c3.915-5.51 14.648-8.598 23.893-6.328a2 2 0 00.954-3.884c-10.737-2.637-23.165.94-28.107 7.894a2 2 0 003.26 2.318zM156.37 99.159c-3.915-5.51-14.648-8.598-23.893-6.328a2 2 0 01-.954-3.884c10.737-2.637 23.165.94 28.108 7.894a2 2 0 01-3.26 2.318z"/></g><g transform="translate(-16)"><mask id="h" fill="#fff"><use xlink:href="#g"/></mask><g mask="url(#h)"><path d="M66 109.778V89c0-22.887 11.65-43.054 29.343-54.893.535 2.51.889 5.285 1.047 8.286 10.492-1.464 22.8-2.306 35.964-2.306 12.874 0 24.93.806 35.27 2.21.16-2.962.512-5.702 1.04-8.184C186.354 45.953 198 66.116 198 89v20.777c-9.022-1.07-21.87-20.386-27.332-40.339-10.985 1.674-24.155 2.649-38.314 2.649-14.449 0-27.868-1.015-38.985-2.752C87.922 89.33 75.038 108.717 66 109.778z" fill-opacity=".16" fill="#000"/><g transform="translate(16)"><mask id="j" fill="#fff"><use xlink:href="#i"/></mask><use fill="#314756" xlink:href="#i"/><g mask="url(#j)" fill="#2C1B18"><path d="M-16 0h264v280H-16z"/></g></g></g></g></g></svg>
